src/images/svg/flags/zh.svg

<svg width="25" height="16" viewBox="0 0 25 16" fill="none" xmlns="http://www.w3.org/2000/svg">
<path d="M22.5 0H2.5C1.39543 0 0.5 0.89543 0.5 2V14C0.5 15.1046 1.39543 16 2.5 16H22.5C23.6046 16 24.5 15.1046 24.5 14V2C24.5 0.89543 23.6046 0 22.5 0Z" fill="#ED3C3C"/>
<path d="M9.10173 4.41316C8.97186 4.56419 8.84199 4.71521 8.72294 4.84466H12.3268C12.3268 5.27616 12.316 5.6753 12.2944 6.0205H12.9113V6.66775H12.2403L12.1429 7.34736H12.5866V7.87594H12.0238C12.0022 7.94067 11.9913 7.99461 11.9697 8.04854L12.2836 8.28587C11.6991 8.57713 11.1039 8.82524 10.4978 9.0302C11.2554 8.99784 11.9913 8.97627 12.7273 8.95469C13.1818 8.72816 13.6364 8.48004 14.1017 8.22114L14.8268 8.69579C13.5931 9.39698 12.2294 9.95793 10.7359 10.3786C12.1537 10.3139 13.5498 10.2384 14.9134 10.1305C14.6753 9.95793 14.4264 9.77454 14.1667 9.60194L14.8918 9.15965C15.9199 9.8069 16.71 10.3679 17.2619 10.8641L16.4502 11.425C16.2229 11.1985 15.9632 10.972 15.6818 10.7346C14.7511 10.7886 13.8636 10.8425 13.0195 10.8857V12.1478C13.0195 12.7087 12.684 13 12.0238 13H11.0065L10.8333 12.1802C11.1472 12.2125 11.4502 12.2341 11.7316 12.2341C11.9372 12.2341 12.0455 12.1262 12.0455 11.932V10.9288C10.7576 10.9935 9.5671 11.0367 8.48485 11.069L8.2684 10.2276C8.54978 10.2384 8.82035 10.2492 9.09091 10.2492C9.87013 10.0874 10.6818 9.82848 11.5368 9.48328L9.06926 9.56958L8.91775 8.8576C9.28571 8.8576 9.53463 8.82524 9.68615 8.76052C10.1515 8.58792 10.6277 8.38296 11.1255 8.12406C11.1472 8.03776 11.1797 7.95146 11.2013 7.87594H8.07359C8.14935 7.46602 8.21429 7.06688 8.27922 6.66775H7.57576V6.0205H8.35498C8.39827 5.70766 8.43074 5.40561 8.45238 5.10356C8.31169 5.23301 8.171 5.36246 8.0303 5.47033L7.5 4.83387C8.09524 4.39159 8.61472 3.78749 9.04762 3.01079L9.89178 3.19417C9.79437 3.36677 9.69697 3.53937 9.59957 3.70119H12.7814V4.41316H9.10173ZM9.10173 6.58145L8.97186 7.34736H10.6277C10.2381 7.17476 9.85931 7.03452 9.48052 6.93743L9.70779 6.58145H9.10173ZM10.6602 7.34736H11.3312C11.3853 7.08846 11.4286 6.84035 11.461 6.58145H9.75108C10.1732 6.70011 10.5519 6.82956 10.8983 6.98058L10.6602 7.34736ZM11.5043 6.12837L11.5368 5.36246H9.24242C9.22078 5.62136 9.18831 5.88026 9.15584 6.12837H10.6602C10.3139 5.95577 9.97836 5.82632 9.64286 5.72923L9.89178 5.37325C10.2814 5.48112 10.6494 5.63215 10.9848 5.80475L10.7792 6.12837H11.5043ZM14.0909 4.79072C14.2641 5.3301 14.5779 5.80475 15.0325 6.21467C15.3788 5.80475 15.6494 5.3301 15.8225 4.79072H14.0909ZM14.4264 6.77562C14.0368 6.3657 13.7446 5.9342 13.5498 5.45955C13.3766 5.6753 13.2035 5.86947 13.0303 6.04207L12.4892 5.39482C13.0519 4.8123 13.539 4.01402 13.9502 3L14.8268 3.19417C14.7186 3.47465 14.5996 3.73355 14.4805 3.98166H17.2944V4.79072H16.6667C16.4719 5.56742 16.1472 6.20388 15.7143 6.72168C16.2121 7.04531 16.8074 7.31499 17.5 7.54153L17.0346 8.35059C16.2554 8.07012 15.6061 7.73571 15.0866 7.34736C14.5455 7.77886 13.8853 8.09169 13.1277 8.29666L12.6515 7.55232C13.3658 7.37972 13.9502 7.12082 14.4264 6.77562ZM14.2532 11.123C15.3355 11.3819 16.3312 11.7055 17.2294 12.0939L16.71 12.9029C15.7576 12.4714 14.7619 12.1262 13.7446 11.8781L14.2532 11.123ZM10.4545 11.1661L10.9957 11.781C10.1948 12.2341 9.20996 12.6117 8.05195 12.9137L7.67316 12.1154C8.7987 11.8781 9.72944 11.5545 10.4545 11.1661Z" fill="white"/>
<path fill-rule="evenodd" clip-rule="evenodd" d="M22.5 1H2.5C1.94772 1 1.5 1.44772 1.5 2V14C1.5 14.5523 1.94772 15 2.5 15H22.5C23.0523 15 23.5 14.5523 23.5 14V2C23.5 1.44771 23.0523 1 22.5 1ZM2.5 0C1.39543 0 0.5 0.895431 0.5 2V14C0.5 15.1046 1.39543 16 2.5 16H22.5C23.6046 16 24.5 15.1046 24.5 14V2C24.5 0.895431 23.6046 0 22.5 0H2.5Z" fill="black" fill-opacity="0.04"/>
</svg>

<svg width="25" height="16" fill="none" xmlns="http://www.w3.org/2000/svg"><path d="M22.5 0h-20a2 2 0 0 0-2 2v12a2 2 0 0 0 2 2h20a2 2 0 0 0 2-2V2a2 2 0 0 0-2-2Z" fill="#ED3C3C"/><path d="M9.102 4.413c-.13.151-.26.302-.38.432h3.605c0 .431-.011.83-.033 1.176h.617v.647h-.67l-.098.68h.444v.528h-.563c-.022.065-.033.119-.054.173l.314.237a14.2 14.2 0 0 1-1.786.744c.757-.032 1.493-.054 2.23-.075.454-.227.908-.475 1.374-.734l.725.475a18.264 18.264 0 0 1-4.091 1.683 125.98 125.98 0 0 0 4.177-.248c-.238-.173-.487-.356-.746-.53l.725-.441c1.028.647 1.818 1.208 2.37 1.704l-.812.561a12.671 12.671 0 0 0-.768-.69c-.93.054-1.818.107-2.662.15v1.263c0 .56-.336.852-.996.852h-1.017l-.174-.82c.314.033.617.054.899.054.205 0 .314-.108.314-.302v-1.003c-1.288.064-2.479.108-3.561.14l-.217-.841c.282.01.552.021.823.021.78-.162 1.59-.42 2.446-.766l-2.468.087-.151-.712c.368 0 .617-.033.768-.097.466-.173.942-.378 1.44-.637.021-.086.054-.173.075-.248H8.074c.075-.41.14-.81.205-1.208h-.703V6.02h.779c.043-.313.076-.615.097-.917-.14.129-.281.258-.422.366l-.53-.636c.595-.442 1.115-1.047 1.548-1.823l.844.183c-.098.173-.195.345-.292.507h3.181v.712h-3.68Zm0 2.168-.13.766h1.656a7.341 7.341 0 0 0-1.147-.41l.227-.356h-.606Zm1.558.766h.671c.054-.259.098-.507.13-.766h-1.71c.422.12.8.249 1.147.4l-.238.366Zm.844-1.219.033-.766H9.242a16.54 16.54 0 0 1-.086.766h1.504a6.009 6.009 0 0 0-1.017-.399l.249-.356c.39.108.757.26 1.093.432l-.206.323h.725Zm2.587-1.337a3.23 3.23 0 0 0 .942 1.424c.346-.41.616-.885.79-1.424H14.09Zm.335 1.985a4.244 4.244 0 0 1-.876-1.316 7.07 7.07 0 0 1-.52.582l-.54-.647c.562-.583 1.049-1.381 1.46-2.395l.877.194c-.108.28-.227.54-.347.788h2.814v.809h-.627c-.195.776-.52 1.413-.953 1.93.498.324 1.093.594 1.786.82l-.465.81c-.78-.28-1.429-.615-1.948-1.004-.541.432-1.202.745-1.96.95l-.476-.745c.715-.172 1.3-.431 1.775-.776Zm-.173 4.347c1.082.259 2.078.583 2.976.97l-.519.81a16.903 16.903 0 0 0-2.965-1.025l.508-.755Zm-3.799.043.542.615c-.801.453-1.786.83-2.944 1.133l-.379-.799c1.126-.237 2.056-.56 2.781-.949Z" fill="#fff"/><path fill-rule="evenodd" clip-rule="evenodd" d="M22.5 1h-20a1 1 0 0 0-1 1v12a1 1 0 0 0 1 1h20a1 1 0 0 0 1-1V2a1 1 0 0 0-1-1Zm-20-1a2 2 0 0 0-2 2v12a2 2 0 0 0 2 2h20a2 2 0 0 0 2-2V2a2 2 0 0 0-2-2h-20Z" fill="#000" fill-opacity=".04"/></svg>
